VTMLocalNetworkNode.discover;
VTMLocalNetworkNode.remoteNetworkNodes;

VTM.activate;
VTM.discover;
VTM.makeView;
VTM
VTM

~jsonData[\hostname]
~jsonData["hostname"]
topEnvironment
NetAddr.newFromIPString("192.168.1.114:57121");
NetAddr.newFromIPString('192.168.1.114:57121');
NetAddr.newFromIPString('192.168.1.114:57121'.asString);

VTMLocalNetworkNode.discover();
OSCFunc.trace;
(
	VTMJSON.stringify(
		(
			hostname: "Eiri.local",
			addr: NetAddr.localAddr.generateIPString
		)
	);
)

